X: 35569
T: Ryan's
R: hornpipe
M: 4/4
K: Bminor
|:FA|B4 BAFB|ABde f2ed|e3f edBd|e4- efed|
B4 BAFB|ABde f2ed|eaaf edBG|A6:|
FA|Bddc d3e|fded B3 e|fded B2dB|AFAB dBcA|
B4 BAFB|ABde f2ed|eaaf edBG|A6 FA|
Bddc d3e|fded B3e|fafa edBd|AFAB dBcA|
B4 BAFB|ABde f2ed|eaaf edBG|A6||

